X:1
T:Title
%%score { 1 | 2 }
L:1/8
Q:1/4=106
M:4/4
K:C
V:1 treble nm="Grand Piano"
V:2 bass 
V:1
 [EG]3 [DF] [CE]2 [EG]2 | [Ec]3 [EG] [FA] [EG]3 | C3 D E [EG]3 | [DF]3 [CE] [CE] [B,D]3 | %4
w: P.~W.~Hill * * *||||
 [EG]3 [DF] [CE]2 [EG]2 | [Ec]3 [EG] [FA] [EG]3 | G3 ^F G [Fc]3 | [GB]3 [^FA] A G3 | %8
w: ||||
 [EG]2 [EG]2 [EG]2 [Ec]2 | [FB]2 [FB]2 [FB]2 F2 | A2 A2 A2 B2 | [FA]2 [FA]2 [EG]2 E2 | %12
w: ||||
 C2 E2 G2 c2 | A3 [GB] [Ac] A3 | G3 A G c3 | B3 d [Fd] [Ec]3 |] %16
w: ||||
V:2
 [C,G,]3 [C,G,] [C,G,]2 [C,C]2 | [C,G,]3 [C,C] [C,C] [C,C]3 | [E,G,]3 [G,B,] [C,G,C] [C,C]3 | %3
 [B,,G,]3 [C,G,] [G,,G,] [G,,G,]3 | [C,G,]3 [C,G,] [C,G,]2 [C,C]2 | [C,G,]3 [C,C] [C,C] [C,C]3 | %6
 [D,B,D]3 [D,A,D] [D,B,D] [D,A,]3 | [D,D]3 [D,C][K:treble] [G,C^F] [G,B,]3 | %8
 [C,C]2 [C,C]2 [C,C]2 [C,G,]2 | [D,G,]2 [D,G,]2 [D,G,]2[K:treble] [G,B,D]2 | %10
 [G,B,F]2 [G,B,F]2 [G,B,F]2 [G,B,F]2 | [C,C]2 [C,C]2 [C,C]2 [C,G,C]2 | C,2 E,2 G,2 C2 | %13
 [F,CF]3 [F,C] [F,C][K:treble] [F,CF]3 | [G,CE]3 [G,CF] [G,CE] [G,CE]3 | %15
 [G,DF]3 [G,B,F][K:bass] [C,C] [C,C]3 |] %16

